X: 1096
T: Hüseynî Aranağme (Düyek)
C: ?
O: Turkey
F: http://compmusic.upf.edu/node/140
N: huseyni--aranagme--duyek--1--
N: makam= huseyni
N: form= aranagme
N: usul= duyek = 8/4
M: 8/4
L: 1/16
K: C _2/4B ^3/4f  
Q: 1/4=156
%%MIDI tuningsystem comma53
d2 e4 d2 e3/2d/ ef ga e2  | d2 e4 c2 d{e}d cB A4  | \
w:  ARANAĞME  |   | 
^f2 g4 {a}gf g3f g3/2f/ ga  | 
w:   | 
gf e6 g2 fe e4  | g2 a4 g2 a3g =f3/2e/ d2  | \
w:   |   | 
e3c d3B c3B A4  | 
w:   | 
{=f}ed d4 cB B3/2A/ Bc BA G2  | B2 AB c2 BA A4 z4  | \
w:   |   | 
d2 e4 d2 e3/2d/ ef ga e2  | 
w:  ARANAĞME  | 
d2 e4 c2 d{e}d cB A4  | ^f2 g4 {a}gf g3f g3/2f/ ga  | \
w:   |   | 
gf e6 g2 fe e4  | 
w:   | 
g2 a4 g2 a3g =f3/2e/ d2  | e3c d3B c3B A4  | \
w:   |   | 
{=f}ed d4 cB B3/2A/ Bc BA G2  | 
w:   | 
A6 dc cB BA A4  | |


